svg/uf007e-festival_of_the_lost.svg

<svg height="960" style="" width="1723" xmlns="http://www.w3.org/2000/svg"><path d="m861.49998-120-70.69603 147.2727h141.39203zm-53.85298 194.0092a469.09091 469.09091 0 00-415.23793 465.9908 469.09091 469.09091 0 0071.82529 249.4495l87.15553-181.5766-67.87286-67.8729 193.18892-193.1889zm107.706.014 130.941 272.7913 193.189 193.1889-67.8729 67.8729 87.1555 181.5767a469.09091 469.09091 0 0071.8253-249.453 469.09091 469.09091 0 00-415.2379-465.9801zm-53.85302 291.4308a174.54544 174.54544 0 00-174.54545 174.546 174.54544 174.54544 0 00174.54545 174.5455 174.54544 174.54544 0 00174.54542-174.5455 174.54544 174.54544 0 00-174.54542-174.5455zm-594.54545 82.0313-147.27273 70.696 147.27273 70.696zm1189.09087 0v141.392l147.2728-70.696zm-595.16331 10.696a81.818182 81.818182 0 01.61818 0 81.818182 81.818182 0 0181.81818 81.8187 81.818182 81.818182 0 01-81.81847 81.8182 81.818182 81.818182 0 01-81.81818-81.8182 81.818182 81.818182 0 0181.20029-81.8182zm-199.8047 259.3791-116.37783 242.4396h633.60084l-116.3779-242.4396-200.42252 200.4226z" style="stroke-width:7.27273"/></svg>

<svg xmlns="http://www.w3.org/2000/svg" width="1723" height="960">
    <path d="M861.5-120 790.804 27.273h141.392zM807.647 74.01A469.09 469.09 0 0 0 392.409 540a469.1 469.1 0 0 0 71.825 249.45l87.156-181.577L483.517 540l193.189-193.189zm107.706.013 130.941 272.792 193.189 193.188-67.873 67.873 87.156 181.577A469.1 469.1 0 0 0 1330.59 540 469.09 469.09 0 0 0 915.353 74.02zM861.5 365.454A174.545 174.545 0 0 0 686.955 540 174.545 174.545 0 0 0 861.5 714.546 174.545 174.545 0 0 0 1036.045 540 174.545 174.545 0 0 0 861.5 365.455zm-594.545 82.031-147.273 70.696 147.273 70.696zm1189.09 0v141.392l147.273-70.696zm-595.163 10.696h.618A81.82 81.82 0 0 1 943.318 540a81.82 81.82 0 0 1-81.818 81.818A81.82 81.82 0 0 1 779.682 540a81.82 81.82 0 0 1 81.2-81.818zm-199.805 259.38L544.7 960h633.6l-116.378-242.44L861.5 917.983z" style="stroke-width:7.27273"/>
</svg>
